tag/Light/Figma.svg

<svg width="89" height="32" viewBox="0 0 89 32" fill="none" xmlns="http://www.w3.org/2000/svg">
<path d="M0 16C0 10.3995 0 7.59921 1.08993 5.46009C2.04867 3.57847 3.57847 2.04867 5.46009 1.08993C7.59921 0 10.3995 0 16 0H72.5612C78.1618 0 80.962 0 83.1011 1.08993C84.9828 2.04867 86.5126 3.57847 87.4713 5.46009C88.5612 7.59921 88.5612 10.3995 88.5612 16V16C88.5612 21.6005 88.5612 24.4008 87.4713 26.5399C86.5126 28.4215 84.9828 29.9513 83.1011 30.9101C80.962 32 78.1618 32 72.5612 32H16C10.3995 32 7.59921 32 5.46009 30.9101C3.57847 29.9513 2.04867 28.4215 1.08993 26.5399C0 24.4008 0 21.6005 0 16V16Z" fill="#272727"/>
<g clip-path="url(#clip0_434_127)">
<path d="M15.3333 15.9999C15.3333 15.2927 15.6142 14.6144 16.1143 14.1143C16.6144 13.6142 17.2927 13.3333 17.9999 13.3333C18.7072 13.3333 19.3854 13.6142 19.8855 14.1143C20.3856 14.6144 20.6666 15.2927 20.6666 15.9999C20.6666 16.7072 20.3856 17.3854 19.8855 17.8855C19.3854 18.3856 18.7072 18.6666 17.9999 18.6666C17.2927 18.6666 16.6144 18.3856 16.1143 17.8855C15.6142 17.3854 15.3333 16.7072 15.3333 15.9999V15.9999Z" fill="#1ABCFE"/>
<path d="M10 21.3334C10 20.6262 10.281 19.9479 10.781 19.4478C11.2811 18.9477 11.9594 18.6667 12.6667 18.6667H15.3333V21.3334C15.3333 22.0407 15.0524 22.7189 14.5523 23.219C14.0522 23.7191 13.3739 24.0001 12.6667 24.0001C11.9594 24.0001 11.2811 23.7191 10.781 23.219C10.281 22.7189 10 22.0407 10 21.3334V21.3334Z" fill="#0ACF83"/>
<path d="M15.3333 8V13.3333H17.9999C18.7072 13.3333 19.3854 13.0524 19.8855 12.5523C20.3856 12.0522 20.6666 11.3739 20.6666 10.6667C20.6666 9.95942 20.3856 9.28114 19.8855 8.78105C19.3854 8.28095 18.7072 8 17.9999 8H15.3333Z" fill="#FF7262"/>
<path d="M10 10.6667C10 11.3739 10.281 12.0522 10.781 12.5523C11.2811 13.0524 11.9594 13.3333 12.6667 13.3333H15.3333V8H12.6667C11.9594 8 11.2811 8.28095 10.781 8.78105C10.281 9.28114 10 9.95942 10 10.6667V10.6667Z" fill="#F24E1E"/>
<path d="M10 15.9999C10 16.7072 10.281 17.3854 10.781 17.8855C11.2811 18.3856 11.9594 18.6666 12.6667 18.6666H15.3333V13.3333H12.6667C11.9594 13.3333 11.2811 13.6142 10.781 14.1143C10.281 14.6144 10 15.2927 10 15.9999V15.9999Z" fill="#A259FF"/>
</g>
<path d="M30.6875 21.3169H32.5946V16.801H36.7291V15.077H32.5946V12.4071H37.1258V10.6831H30.6875V21.3169Z" fill="white"/>
<path d="M39.2559 21.3169H41.1629V10.6831H39.2559V21.3169Z" fill="white"/>
<path d="M43.249 16.0076C43.249 19.181 45.7664 21.5 48.894 21.5C50.679 21.5 52.2504 20.7219 53.2421 19.5014V15.2143H48.482V16.9078H51.4418V18.8606C50.7858 19.4404 49.9009 19.776 48.894 19.776C46.7581 19.776 45.1409 18.1741 45.1409 16.0076C45.1409 13.8564 46.7581 12.224 48.894 12.224C49.9467 12.224 50.8926 12.5902 51.5791 13.2614L52.8454 12.1019C51.8232 11.0798 50.4501 10.5 48.894 10.5C45.7664 10.5 43.249 12.8343 43.249 16.0076Z" fill="white"/>
<path d="M55.4348 21.3169H57.235V14.1311L60.8814 19.7302L64.4972 14.1158V21.3169H66.2974V10.6831H64.6802L60.8814 16.6484L57.0672 10.6831H55.4348V21.3169Z" fill="white"/>
<path d="M68.0647 21.3169H70.0786L70.9482 19.1963H75.6777L76.5474 21.3169H78.5612L74.1216 10.6831H72.5044L68.0647 21.3169ZM71.5432 17.6248L73.313 13.292L75.0827 17.6248H71.5432Z" fill="white"/>
<defs>
<clipPath id="clip0_434_127">
<rect width="10.6875" height="16" fill="white" transform="translate(10 8)"/>
</clipPath>
</defs>
</svg>

<svg xmlns="http://www.w3.org/2000/svg" width="89" height="32" fill="none" viewBox="0 0 89 32" preserveAspectRatio="xMinYMin meet">
    <g class="tag/Light/Figma">
        <path class="box" fill="#272727" d="M0 16c0-5.6 0-8.4 1.09-10.54a10 10 0 0 1 4.37-4.37C7.6 0 10.4 0 16 0h56.561c5.6 0 8.401 0 10.54 1.09a10 10 0 0 1 4.37 4.37c1.09 2.14 1.09 4.94 1.09 10.54 0 5.6 0 8.4-1.09 10.54a10 10 0 0 1-4.37 4.37C80.962 32 78.161 32 72.561 32H16c-5.6 0-8.4 0-10.54-1.09a10 10 0 0 1-4.37-4.37C0 24.4 0 21.6 0 16Z"/>
        <g class="icon" clip-path="url(#a)">
            <path fill="#1ABCFE" d="M15.333 16a2.667 2.667 0 1 1 5.334 0 2.667 2.667 0 0 1-5.334 0Z" class="Vector"/>
            <path fill="#0ACF83" d="M10 21.333a2.667 2.667 0 0 1 2.667-2.666h2.666v2.666a2.667 2.667 0 1 1-5.333 0Z" class="Vector"/>
            <path fill="#FF7262" d="M15.333 8v5.333H18A2.667 2.667 0 0 0 18 8h-2.667Z" class="Vector"/>
            <path fill="#F24E1E" d="M10 10.667a2.667 2.667 0 0 0 2.667 2.666h2.666V8h-2.666A2.667 2.667 0 0 0 10 10.667Z" class="Vector"/>
            <path fill="#A259FF" d="M10 16a2.667 2.667 0 0 0 2.667 2.667h2.666v-5.334h-2.666A2.667 2.667 0 0 0 10 16Z" class="Vector"/>
        </g>
        <g class="name">
            <path fill="#fff" d="M30.688 21.317h1.907V16.8h4.134v-1.724h-4.134v-2.67h4.53v-1.724h-6.438v10.634ZM39.256 21.317h1.907V10.683h-1.907v10.634ZM43.249 16.008c0 3.173 2.517 5.492 5.645 5.492 1.785 0 3.356-.778 4.348-1.999v-4.287h-4.76v1.694h2.96v1.953c-.656.58-1.541.915-2.548.915-2.136 0-3.753-1.602-3.753-3.768 0-2.152 1.617-3.784 3.753-3.784 1.053 0 1.999.366 2.685 1.037l1.266-1.16C51.823 11.08 50.45 10.5 48.894 10.5c-3.128 0-5.645 2.334-5.645 5.508ZM55.435 21.317h1.8V14.13l3.646 5.6 3.616-5.615v7.2h1.8V10.684H64.68l-3.799 5.965-3.814-5.965h-1.632v10.634ZM68.065 21.317h2.014l.87-2.12h4.729l.87 2.12h2.013l-4.44-10.634h-1.617l-4.44 10.634Zm3.478-3.692 1.77-4.333 1.77 4.333h-3.54Z"/>
        </g>
    </g>
    <defs>
        <clipPath id="a" class="clip0_0">
            <path fill="#fff" d="M0 0h10.688v16H0z" transform="translate(10 8)"/>
        </clipPath>
    </defs>
</svg>
